src/svg/uf1b2-cube.svg

<!-- Generated by IcoMoon.io -->
<svg version="1.1" xmlns="http://www.w3.org/2000/svg" width="30" height="32" viewBox="0 0 30 32">
<path d="M16 29.089l11.429-6.232v-11.357l-11.429 4.161v13.429zM14.857 13.643l12.464-4.536-12.464-4.536-12.464 4.536zM29.714 9.143v13.714c0 0.839-0.464 1.607-1.196 2l-12.571 6.857c-0.339 0.196-0.714 0.286-1.089 0.286s-0.75-0.089-1.089-0.286l-12.571-6.857c-0.732-0.393-1.196-1.161-1.196-2v-13.714c0-0.964 0.607-1.821 1.5-2.143l12.571-4.571c0.25-0.089 0.518-0.143 0.786-0.143s0.536 0.054 0.786 0.143l12.571 4.571c0.893 0.321 1.5 1.179 1.5 2.143z"></path>
</svg>

<svg xmlns="http://www.w3.org/2000/svg" width="30" height="32"><path d="M16 29.089l11.429-6.232V11.5L16 15.661V29.09zm-1.143-15.446l12.464-4.536-12.464-4.536L2.393 9.107zm14.857-4.5v13.714c0 .839-.464 1.607-1.196 2l-12.571 6.857c-.339.196-.714.286-1.089.286s-.75-.089-1.089-.286L1.198 24.857a2.273 2.273 0 0 1-1.196-2V9.143A2.28 2.28 0 0 1 1.502 7l12.571-4.571c.25-.089.518-.143.786-.143s.536.054.786.143L28.216 7a2.28 2.28 0 0 1 1.5 2.143z"/></svg>
